docs/.gitbook/assets/icon-stacked-bars-2-16@light.svg

<svg width="32" height="32" viewBox="0 0 16 16" fill="none" xmlns="http://www.w3.org/2000/svg">
<rect x="0" y="0" width="16" height="16" fill="#fff"/>
<path opacity="0.3" fill-rule="evenodd" clip-rule="evenodd" d="M2 6.25C2 6.66421 2.33579 7 2.75 7L13.25 7C13.6642 7 14 6.66421 14 6.25L14 5.75C14 5.33579 13.6642 5 13.25 5L2.75 5C2.33579 5 2 5.33579 2 5.75L2 6.25ZM2 2.25C2 2.66421 2.33579 3 2.75 3L13.25 3C13.6642 3 14 2.66421 14 2.25L14 1.75C14 1.33579 13.6642 0.999999 13.25 1L2.75 1C2.33579 1 2 1.33579 2 1.75L2 2.25Z" fill="#000"/>
<path fill-rule="evenodd" clip-rule="evenodd" d="M2 14.25C2 14.6642 2.33579 15 2.75 15L13.25 15C13.6642 15 14 14.6642 14 14.25L14 13.75C14 13.3358 13.6642 13 13.25 13L2.75 13C2.33579 13 2 13.3358 2 13.75L2 14.25ZM2 10.25C2 10.6642 2.33579 11 2.75 11L13.25 11C13.6642 11 14 10.6642 14 10.25L14 9.75C14 9.33579 13.6642 9 13.25 9L2.75 9C2.33579 9 2 9.33579 2 9.75L2 10.25Z" fill="#000"/>
</svg>

<svg xmlns="http://www.w3.org/2000/svg" width="32" height="32" fill="none" viewBox="0 0 16 16"><path fill="#fff" d="M0 0h16v16H0z"/><path fill="#000" fill-rule="evenodd" d="M2 6.25c0 .414.336.75.75.75h10.5a.75.75 0 0 0 .75-.75v-.5a.75.75 0 0 0-.75-.75H2.75a.75.75 0 0 0-.75.75zm0-4c0 .414.336.75.75.75h10.5a.75.75 0 0 0 .75-.75v-.5a.75.75 0 0 0-.75-.75H2.75a.75.75 0 0 0-.75.75z" clip-rule="evenodd" opacity=".3"/><path fill="#000" fill-rule="evenodd" d="M2 14.25c0 .414.336.75.75.75h10.5a.75.75 0 0 0 .75-.75v-.5a.75.75 0 0 0-.75-.75H2.75a.75.75 0 0 0-.75.75zm0-4c0 .414.336.75.75.75h10.5a.75.75 0 0 0 .75-.75v-.5a.75.75 0 0 0-.75-.75H2.75a.75.75 0 0 0-.75.75z" clip-rule="evenodd"/></svg>
